packs/brands/padlet.svg

<svg xmlns="http://www.w3.org/2000/svg" viewBox="0 0 640 512"><!--! Font Awesome Free 6.5.2 by @fontawesome - https://fontawesome.com License - https://fontawesome.com/license/free (Icons: CC BY 4.0, Fonts: SIL OFL 1.1, Code: MIT License) Copyright 2024 Fonticons, Inc.--><path d="m297.9 0 .1.001c7.6.107 14.4 4.719 17.5 11.779l132 308.52.3-.1.2.4-2.8 10-42.9 158c-3.7 16.2-19.7 26.3-35.8 22.6l-68.4-15.6-68.5 15.6c-16.1 3.7-32.1-6.4-35.8-22.6l-42.9-158-2.7-10 .1-.4L280.4 11.78c3-6.983 9.9-11.596 17.5-11.78M160.1 322.1l131 39.1 6.9 122.5 7.9-121.5 130.6-39.3.2-.1-131 25.1-8.6-320.18-5.2 320.18zM426 222.6l94.4-41h73.8l-157 247.6 31.6-109zm171.5-41.2 41.4 76.2c4 7.5-3.9 15.9-11.6 12.2l-47.6-22.7zM127.3 318.5 158.7 430 1.61 154.5c-5.902-10.4 5.518-22 15.94-16.2l151.85 84.2z"/></svg>

<svg xmlns="http://www.w3.org/2000/svg" viewBox="0 0 640 512"><!--! Font Awesome Free 6.5.2 by @fontawesome - https://fontawesome.com License - https://fontawesome.com/license/free (Icons: CC BY 4.0, Fonts: SIL OFL 1.1, Code: MIT License) Copyright 2024 Fonticons, Inc. --><path d="M297.9 0L298 .001C305.6 .1078 312.4 4.72 315.5 11.78L447.5 320.3L447.8 320.2L448 320.6L445.2 330.6L402.3 488.6C398.6 504.8 382.6 514.9 366.5 511.2L298.1 495.6L229.6 511.2C213.5 514.9 197.5 504.8 193.8 488.6L150.9 330.6L148.2 320.6L148.3 320.2L280.4 11.78C283.4 4.797 290.3 .1837 297.9 .0006L297.9 0zM160.1 322.1L291.1 361.2L298 483.7L305.9 362.2L436.5 322.9L436.7 322.8L305.7 347.9L297.1 27.72L291.9 347.9L160.1 322.1zM426 222.6L520.4 181.6H594.2L437.2 429.2L468.8 320.2L426 222.6zM597.5 181.4L638.9 257.6C642.9 265.1 635 273.5 627.3 269.8L579.7 247.1L597.5 181.4zM127.3 318.5L158.7 430L1.61 154.5C-4.292 144.1 7.128 132.5 17.55 138.3L169.4 222.5L127.3 318.5z"/></svg>
